X: 114
T:Missa Rosina / Sanctus
N: Derived from Jos0904d-Missa_Rosina-Sanctus.krn
C: Josquin des Prez
%%abc-version 2.0
%%abcx-abcm2ps-target-version 5.9.1 (29 Sep 2008)
%%abc-creator hum2abc beta
%%abcx-conversion-date 2019/02/12 16:15:43
%%abc-edited-by Jesse Rodin
%%abc-edited-by Jesse Rodin (May 2013
%%abcx-initial-encoding-date 2013/05/10/
%%humdrum-veritas 3576837124
%%humdrum-veritas-data 1717437575
%%linebreak <none>
%%barnumbers 0
L: 1/4
M: 3/1
Q: 1/2=120
K: C clef=treble-8
E6F2G4 | 
G4A4c4 | 
B12 | 
A8z4 | 
G4c6d2 | 
e8A4- | 
A2GFE4C4 | 
c4B2A4G2 | 
F4E8 | 
[M:2/1]E6F2 | 
G4G4 | 
A4c4 | 
B8 | 
A8 | 
z4G4 | 
c6d2 | 
e8 | 
A6GF | 
E4C4 | 
c4B2A2- | 
A2G2F4 | 
E8 ||  
 [K:C] [K:clef=treble-8][M:2/1]c4B2A2- | 
A2G2F4 | 
E2A2G2F2- | 
F2E4D2 | 
E4F4 | 
E4z2G2- | 
G2E2F2G2 | 
E8 |]  



